packages/kaspersky-hexa-ui-icons/src/iconsSVGs/24/Heart.svg

<svg width="24" height="24" viewBox="0 0 24 24" fill="none" xmlns="http://www.w3.org/2000/svg">
<path fill-rule="evenodd" clip-rule="evenodd" d="M11.8408 21.002C11.6854 20.9827 11.5324 20.9264 11.3949 20.8309C11.0813 20.6132 8.90206 19.0786 6.7365 16.9905C5.65401 15.9468 4.55257 14.7435 3.6873 13.4779C2.83083 12.2251 2.14981 10.8308 2.01929 9.41595C1.90631 8.1913 2.01965 6.96323 2.5438 5.8829C3.0801 4.77753 4.00434 3.91525 5.33913 3.38131C7.7509 2.41656 9.6632 3.28735 10.9101 4.3824C11.3445 4.76385 11.7078 5.17847 12.0002 5.56397C12.2998 5.16898 12.674 4.74327 13.1229 4.35393C14.3711 3.27141 16.2719 2.4255 18.6613 3.38131C19.9961 3.91525 20.9203 4.77753 21.4566 5.88289C21.9808 6.96322 22.0941 8.19129 21.9811 9.41595C21.8496 10.842 21.1587 12.2476 20.2918 13.5089C19.4159 14.7835 18.3019 15.9942 17.2108 17.0416C15.0279 19.1371 12.8464 20.6642 12.5913 20.8408C12.3636 20.9985 12.0933 21.0486 11.8408 21.002ZM6.08194 5.23825C7.59396 4.63342 8.72662 5.1266 9.59036 5.88515C10.4938 6.6786 11.0117 7.7055 11.0853 7.8591C11.3109 8.32945 11.8563 8.54295 12.3357 8.36394C12.5822 8.28156 12.7965 8.10379 12.9188 7.85145C13.0084 7.66643 13.5325 6.64611 14.4333 5.86484C15.2936 5.11877 16.4186 4.63827 17.9185 5.23825C18.8299 5.60282 19.356 6.13507 19.6572 6.75592C19.9706 7.4018 20.0819 8.23162 19.9896 9.23222C19.9032 10.169 19.424 11.2406 18.6436 12.3761C17.8722 13.4985 16.8616 14.6044 15.8257 15.5988C14.3132 17.0509 12.7947 18.2197 12.0002 18.8038C11.1967 18.2131 9.65348 17.0248 8.12472 15.5508C7.09761 14.5604 6.09939 13.4623 5.33833 12.3491C4.56848 11.223 4.09653 10.1612 4.01083 9.23223C3.91852 8.23163 4.02983 7.4018 4.3432 6.75592C4.64442 6.13507 5.17055 5.60283 6.08194 5.23825Z" fill="black"/>
</svg>

<svg xmlns="http://www.w3.org/2000/svg" width="24" height="24" fill="none" viewBox="0 0 24 24"><path fill="#000" fill-rule="evenodd" d="M11.8408 21.002a.995.995 0 0 1-.4459-.1711c-.3136-.2177-2.4928-1.7523-4.6584-3.8404-1.0825-1.0437-2.184-2.247-3.0492-3.5126-.8565-1.2528-1.5375-2.6471-1.668-4.062-.113-1.2246.0004-2.4527.5245-3.533.5363-1.1054 1.4605-1.9677 2.7953-2.5016 2.4118-.9647 4.3241-.094 5.571 1.0011.4344.3815.7977.796 1.0901 1.1816.2996-.395.6738-.8207 1.1227-1.21 1.2482-1.0826 3.149-1.9285 5.5384-.9727 1.3348.534 2.259 1.3962 2.7953 2.5016.5242 1.0803.6375 2.3084.5245 3.533-.1315 1.4261-.8224 2.8317-1.6893 4.093-.8759 1.2746-1.9899 2.4853-3.081 3.5327-2.1829 2.0955-4.3644 3.6226-4.6195 3.7992a.997.997 0 0 1-.7505.1612M6.0819 5.2383c1.512-.6049 2.6447-.1117 3.5085.6469.9034.7934 1.4213 1.8203 1.4949 1.9739.2256.4703.771.6838 1.2504.5048a.997.997 0 0 0 .5831-.5124c.0896-.185.6137-1.2054 1.5145-1.9867.8603-.746 1.9853-1.2265 3.4852-.6265.9114.3645 1.4375.8968 1.7387 1.5176.3134.6459.4247 1.4757.3324 2.4763-.0864.9368-.5656 2.0084-1.346 3.1439-.7714 1.1224-1.782 2.2283-2.8179 3.2227-1.5125 1.4521-3.031 2.6209-3.8255 3.205-.8035-.5907-2.3467-1.779-3.8755-3.253-1.027-.9904-2.0253-2.0885-2.7864-3.2017-.7698-1.1261-1.2418-2.1879-1.3275-3.1169-.0923-1.0006.019-1.8304.3324-2.4763.3012-.6208.8274-1.153 1.7387-1.5176"/></svg>
